X:53
T:Return to Milltown
C:Traditional
M:C|
R:reel
K:Dm
D2 (3(FED) ADFD | C2EC FCEC | D2 (3A,A,A, D2 ED | CDEG cGED |
D2 (3(FED) ADFD | C2EC FCEC | F2 FD E2 ED | CDEG cGED :|
K:D
|: d2de f2ed | cdef gfec | d2 de f2 ed | cAGE EDD2 |
d2de f2ed | cdef g2 ga | f2 fd efed | cAGE EDD2 :|

%%newpage
%%scale .68
%%staffsep 25

